X: 30622
T: NEVER DO TO GIVE IT UP SO
C:
%R: reel
B: Elias Howe "The Musician's Companion" Part 3 1844 p.62 #2
S: http://imslp.org/wiki/The_Musician's_Companion_(Howe,_Elias)
S: https://archive.org/stream/firstthirdpartof03howe/#page/66/mode/1up
Z: 2015 John Chambers <jc:trillian.mit.edu>
M: 2/4
L: 1/16
K: G
% - - - - - - - - - - - - - - - - - - - - - - - - -
|:\
dedB cBcA | dedB g2(Bc) | dedB cdcB | AGAB c2(Bc) |\
dedB cBcA | dedB g2(fe) | dfag fedc | Bgfe dcBc :|
|:\
GABG (AG)E2 | c4 z2 (3(DEF) | GABG (AG)E2 | G4 z2 (3(DEF) |\
GABG (AG)E2 | A4 B4 | cBcA (BG)E2 | G6 z2 :|
% - - - - - - - - - - - - - - - - - - - - - - - - -
